X:85
T:Maid Of Isla. WI.085
M:C|
L:1/8
Q:1/2=60
C:”Strathspey”
S:Wm Irwin, Folio MS, c1850. AGG’s Transcription
R:.Strathspey
O:England
A:Lake District
Z:vmp.Chris Partington.2005
K:F
“Slow Time”F>F c>A c>dc>A|F>F c>A d>c A2|F>F c>A c>dc>A|d>ef>d c>A A2:|!
|:f>gf>d c>dc>A|f>gf>d c>dG>c|f>gf>d c>dc>A|”etc…”d>ef>d d>cB>A:|

